RestoDelMundo/Uruguay/Otras Categorias/Central Español Fútbol Club.svg

<svg height="68pt" viewBox="0 0 57.92 68" width="57.92pt" xmlns="http://www.w3.org/2000/svg"><g><path d="M 28.960938 68 C 30.054688 66.21875 31.195313 65.003906 32.90625 63.957031 C 34.40625 63.042969 36.304688 62.34375 38.230469 61.738281 C 40.117188 61.148438 42.03125 60.644531 43.90625 60.007813 C 46.753906 59.039063 49.886719 57.679688 52.402344 55.605469 C 55.996094 52.636719 57.855469 48.625 57.921875 43.679688 C 57.980469 39.273438 57.003906 35.328125 56.054688 31.515625 C 55.230469 28.183594 54.449219 25.035156 54.457031 21.886719 C 54.460938 19.808594 54.804688 17.90625 55.527344 16.027344 C 55.988281 14.820313 56.613281 13.691406 57.207031 12.546875 L 44.648438 0 C 39.789063 2.695313 34.671875 5.203125 28.960938 5.203125 C 23.253906 5.203125 18.136719 2.695313 13.273438 0 L .714844 12.546875 C 1.3125 13.691406 1.933594 14.820313 2.398438 16.027344 C 3.117188 17.90625 3.460938 19.808594 3.46875 21.886719 C 3.476563 25.035156 2.695313 28.183594 1.867188 31.515625 C .921875 35.328125 -.0546875 39.273438 .00390625 43.679688 C .0703125 48.625 1.925781 52.636719 5.523438 55.605469 C 8.039063 57.679688 11.167969 59.039063 14.015625 60.007813 C 15.890625 60.644531 17.804688 61.144531 19.691406 61.738281 C 21.621094 62.34375 23.519531 63.042969 25.019531 63.957031 C 26.730469 65.003906 27.871094 66.21875 28.960938 68" fill="#ee312f"/><path d="M 28.960938 64.742188 C 28.5625 64.25 28.152344 63.792969 27.671875 63.371094 C 25.808594 61.726563 23.117188 60.671875 20.402344 59.816406 C 18.042969 59.070313 15.652344 58.464844 13.332031 57.589844 C 11.0625 56.726563 8.726563 55.59375 6.828125 54.027344 C 3.671875 51.421875 2.109375 48.027344 2.050781 43.652344 C 1.992188 39.507813 2.941406 35.695313 3.855469 32.007813 C 4.710938 28.550781 5.523438 25.285156 5.515625 21.882813 C 5.507813 19.410156 5.054688 17.089844 4.125 14.839844 C 3.859375 14.1875 3.550781 13.558594 3.226563 12.933594 L 13.632813 2.539063 C 15.175781 3.394531 16.75 4.191406 18.378906 4.875 C 22.144531 6.453125 25.703125 7.25 28.960938 7.25 C 32.21875 7.25 35.777344 6.453125 39.542969 4.875 C 41.175781 4.191406 42.746094 3.394531 44.292969 2.539063 L 54.699219 12.933594 C 54.375 13.558594 54.066406 14.1875 53.796875 14.839844 C 52.871094 17.089844 52.414063 19.410156 52.40625 21.882813 C 52.402344 25.285156 53.210938 28.550781 54.070313 32.007813 C 54.984375 35.695313 55.929688 39.507813 55.875 43.652344 C 55.816406 48.027344 54.253906 51.421875 51.097656 54.027344 C 49.199219 55.59375 46.859375 56.726563 44.589844 57.589844 C 42.273438 58.464844 39.882813 59.070313 37.523438 59.816406 C 34.808594 60.671875 32.113281 61.726563 30.253906 63.371094 C 29.773438 63.792969 29.359375 64.25 28.960938 64.742188" fill="#fff"/><path d="M 55.03125 43.640625 C 55.085938 39.605469 54.15625 35.847656 53.253906 32.210938 C 52.382813 28.699219 51.558594 25.386719 51.566406 21.882813 C 51.574219 18.773438 52.261719 15.898438 53.671875 13.09375 L 44.144531 3.578125 C 43.949219 3.6875 43.757813 3.789063 43.5625 3.894531 L 43.5625 43.273438 L 50.992188 52.996094 C 53.410156 50.828125 54.976563 47.871094 55.03125 43.640625" fill="#ee312f"/><path d="M 30.613281 62.011719 C 32.4375 60.714844 34.738281 59.824219 37.054688 59.082031 C 37.941406 58.800781 38.835938 58.535156 39.726563 58.273438 L 30.613281 46.351563 L 30.613281 62.011719" fill="#ee312f"/><path d="M 40.257813 5.484375 C 36.863281 6.945313 33.632813 7.796875 30.613281 8.027344 L 30.613281 23.296875 C 35.703125 24.089844 39.59375 28.492188 39.59375 33.800781 C 39.59375 35.03125 39.386719 36.210938 39 37.308594 L 40.257813 38.949219 L 40.257813 5.484375" fill="#ee312f"/><path d="M 17.667969 58.117188 C 18.734375 58.433594 19.804688 58.742188 20.867188 59.082031 C 23.1875 59.824219 25.488281 60.714844 27.308594 62.011719 L 27.308594 44.308594 C 22.222656 43.515625 18.328125 39.113281 18.328125 33.800781 C 18.328125 32.769531 18.476563 31.773438 18.75 30.832031 L 17.667969 29.414063 L 17.667969 58.117188" fill="#ee312f"/><path d="M 27.308594 8.027344 C 24.289063 7.796875 21.0625 6.945313 17.667969 5.484375 L 17.667969 9.398438 L 27.308594 22.011719 L 27.308594 8.027344" fill="#ee312f"/><path d="M 14.363281 3.894531 C 14.167969 3.789063 13.972656 3.6875 13.777344 3.578125 L 13.460938 3.894531 L 14.363281 5.074219 L 14.363281 3.894531" fill="#ee312f"/><path d="M 4.253906 13.09375 C 5.660156 15.898438 6.347656 18.773438 6.355469 21.882813 C 6.363281 25.386719 5.542969 28.699219 4.671875 32.210938 C 3.769531 35.847656 2.835938 39.605469 2.890625 43.640625 C 2.988281 50.890625 7.511719 54.390625 13.160156 56.617188 C 13.558594 56.777344 13.960938 56.921875 14.363281 57.066406 L 14.363281 25.089844 L 4.785156 12.5625 L 4.253906 13.09375" fill="#ee312f"/><path d="M 39.003906 37.308594 C 39.386719 36.210938 39.59375 35.03125 39.59375 33.800781 C 39.59375 27.929688 34.835938 23.167969 28.960938 23.167969 C 28.710938 23.167969 28.460938 23.175781 28.214844 23.195313 L 13.460938 3.894531 L 4.785156 12.5625 L 18.75 30.832031 C 18.476563 31.773438 18.328125 32.769531 18.328125 33.800781 C 18.328125 39.675781 23.089844 44.433594 28.960938 44.433594 C 29.023438 44.433594 29.085938 44.433594 29.148438 44.433594 L 39.726563 58.273438 C 41.421875 57.773438 43.113281 57.269531 44.761719 56.617188 C 47.113281 55.691406 49.269531 54.542969 50.992188 52.996094 L 39.003906 37.308594" fill="#07002f"/><path d="M 32.316406 24.664063 L 32.316406 26.558594 C 32.007813 26.414063 31.691406 26.289063 31.367188 26.1875 C 31.105469 26.105469 30.839844 26.039063 30.574219 25.980469 L 30.574219 33.195313 L 32.316406 33.195313 L 32.316406 34.886719 L 30.574219 34.886719 L 30.574219 43.398438 C 30.21875 43.457031 29.855469 43.496094 29.496094 43.519531 C 29.292969 43.53125 29.089844 43.535156 28.886719 43.535156 L 28.886719 24.058594 C 29.03125 24.054688 29.175781 24.058594 29.320313 24.0625 C 30.347656 24.101563 31.351563 24.304688 32.316406 24.664063" fill="#fff"/><path d="M 38.230469 36.710938 C 37.40625 39.335938 35.515625 41.480469 33.007813 42.640625 L 33.007813 24.949219 C 35.515625 26.109375 37.40625 28.257813 38.230469 30.882813 L 36.414063 30.882813 C 36.136719 30.183594 35.761719 29.53125 35.296875 28.933594 C 35.109375 28.691406 34.902344 28.464844 34.695313 28.238281 C 34.695313 31.988281 34.695313 35.738281 34.695313 39.488281 C 35.070313 39.074219 35.421875 38.660156 35.722656 38.1875 C 36.023438 37.722656 36.269531 37.230469 36.46875 36.710938 L 38.230469 36.710938" fill="#fff"/><path d="M 24.089844 27.460938 C 22.09375 28.980469 20.90625 31.371094 20.90625 33.863281 C 20.90625 36.355469 22.09375 38.746094 24.089844 40.265625 L 24.089844 42.222656 C 21.078125 40.476563 19.21875 37.265625 19.21875 33.796875 C 19.21875 30.324219 21.078125 27.113281 24.089844 25.367188 L 24.089844 27.460938" fill="#fff"/><path d="M 28.195313 41.878906 L 28.195313 43.507813 C 26.996094 43.414063 25.84375 43.105469 24.761719 42.589844 L 24.761719 25.003906 C 25.84375 24.484375 26.996094 24.175781 28.195313 24.085938 L 28.195313 25.847656 C 27.597656 25.902344 27.023438 26.027344 26.453125 26.207031 C 26.453125 28.535156 26.453125 30.867188 26.453125 33.195313 L 28.195313 33.195313 L 28.195313 34.886719 L 26.453125 34.886719 L 26.453125 41.519531 C 26.546875 41.546875 26.644531 41.578125 26.738281 41.605469 C 27.214844 41.742188 27.703125 41.832031 28.195313 41.878906" fill="#fff"/></g></svg>

<svg xmlns="http://www.w3.org/2000/svg" width="77.227" height="68pt" viewBox="0 0 57.92 68"><path fill="#ee312f" d="M28.96 68c1.095-1.781 2.235-2.996 3.946-4.043 1.5-.914 3.399-1.613 5.324-2.219 1.887-.59 3.801-1.093 5.676-1.73 2.848-.969 5.98-2.328 8.496-4.403 3.594-2.968 5.453-6.98 5.52-11.925.058-4.407-.918-8.352-1.867-12.164-.825-3.332-1.606-6.48-1.598-9.63.004-2.077.348-3.98 1.07-5.859.461-1.207 1.086-2.336 1.68-3.48L44.648 0c-4.859 2.695-9.976 5.203-15.687 5.203-5.707 0-10.824-2.508-15.688-5.203L.715 12.547c.598 1.144 1.219 2.273 1.683 3.48.72 1.88 1.063 3.782 1.07 5.86.009 3.148-.773 6.297-1.6 9.629C.921 35.328-.056 39.273.003 43.68c.066 4.945 1.922 8.957 5.52 11.925 2.515 2.075 5.644 3.434 8.492 4.403 1.875.637 3.789 1.137 5.675 1.73 1.93.606 3.829 1.305 5.329 2.219 1.71 1.047 2.851 2.262 3.94 4.043"/><path fill="#fff" d="M28.96 64.742c-.398-.492-.808-.949-1.288-1.37-1.863-1.645-4.555-2.7-7.27-3.556-2.359-.746-4.75-1.351-7.07-2.226-2.27-.863-4.605-1.996-6.504-3.563-3.156-2.605-4.719-6-4.777-10.375-.059-4.144.89-7.957 1.804-11.644.856-3.457 1.668-6.723 1.66-10.125-.007-2.473-.46-4.793-1.39-7.043a23 23 0 0 0-.898-1.906L13.633 2.539c1.543.856 3.117 1.652 4.746 2.336C22.145 6.453 25.703 7.25 28.96 7.25s6.816-.797 10.582-2.375c1.633-.684 3.203-1.48 4.75-2.336l10.406 10.395a24 24 0 0 0-.902 1.906 18.4 18.4 0 0 0-1.39 7.043c-.005 3.402.804 6.668 1.663 10.125.914 3.687 1.86 7.5 1.805 11.644-.059 4.375-1.621 7.77-4.777 10.375-1.899 1.567-4.239 2.7-6.508 3.563-2.317.875-4.707 1.48-7.067 2.226-2.714.856-5.41 1.91-7.27 3.555-.48.422-.894.879-1.292 1.371"/><path fill="#ee312f" d="M55.031 43.64c.055-4.035-.875-7.792-1.777-11.43-.871-3.51-1.695-6.823-1.688-10.327.008-3.11.696-5.985 2.106-8.79l-9.527-9.515c-.196.11-.387.211-.583.317v39.378l7.43 9.723c2.418-2.168 3.985-5.125 4.04-9.355M30.613 62.012c1.825-1.297 4.125-2.188 6.442-2.93a131 131 0 0 1 2.672-.809l-9.114-11.921zM40.258 5.484c-3.395 1.461-6.625 2.313-9.645 2.543v15.27c5.09.793 8.98 5.195 8.98 10.504 0 1.23-.206 2.41-.593 3.508l1.258 1.64zM17.668 58.117c1.066.317 2.137.625 3.2.965 2.32.742 4.62 1.633 6.44 2.93V44.309c-5.085-.793-8.98-5.196-8.98-10.508 0-1.031.149-2.028.422-2.969l-1.082-1.418zM27.309 8.027c-3.02-.23-6.247-1.082-9.641-2.543v3.914l9.64 12.614zM14.363 3.895c-.195-.106-.39-.208-.586-.317l-.316.317.902 1.18zM4.254 13.094c1.406 2.804 2.094 5.68 2.101 8.789.008 3.504-.812 6.816-1.683 10.328-.902 3.637-1.836 7.394-1.781 11.43.097 7.25 4.62 10.75 10.27 12.976.398.16.8.305 1.202.45V25.09L4.785 12.563z"/><path fill="#07002f" d="M39.004 37.309c.383-1.098.59-2.278.59-3.508 0-5.871-4.758-10.633-10.633-10.633q-.376 0-.746.027L13.46 3.895l-8.676 8.668L18.75 30.832a10.6 10.6 0 0 0-.422 2.969c0 5.875 4.762 10.633 10.633 10.633h.187l10.579 13.84c1.695-.5 3.386-1.004 5.035-1.657 2.351-.926 4.508-2.074 6.23-3.62z"/><path fill="#fff" d="M32.316 24.664v1.895a8 8 0 0 0-.949-.372 10 10 0 0 0-.793-.207v7.215h1.742v1.692h-1.742v8.511c-.355.059-.719.098-1.078.122q-.304.016-.61.015V24.06c.145-.004.29 0 .434.003a9.6 9.6 0 0 1 2.996.602M38.23 36.71a9.74 9.74 0 0 1-5.222 5.93V24.95a9.75 9.75 0 0 1 5.222 5.933h-1.816a8 8 0 0 0-1.117-1.95c-.188-.242-.395-.468-.602-.695v11.25c.375-.414.727-.828 1.028-1.3q.449-.698.746-1.477zM24.09 27.46a8.09 8.09 0 0 0-3.184 6.403 8.09 8.09 0 0 0 3.184 6.403v1.957a9.75 9.75 0 0 1-4.871-8.426 9.75 9.75 0 0 1 4.87-8.43zM28.195 41.879v1.629a9.7 9.7 0 0 1-3.433-.918V25.004a9.5 9.5 0 0 1 3.433-.918v1.762a8.3 8.3 0 0 0-1.742.359v6.988h1.742v1.692h-1.742v6.633l.285.085q.717.204 1.457.274"/></svg>
